X: 1
T: Nail That Catfish to the Tree
C: Steve Rosen 1985
R: reel
Z: 2020 John Chambers <jc:trillian.mit.edu>
S: https://www.facebook.com/groups/Fiddletuneoftheday/ 2020-04-07
S: https://www.facebook.com/groups/Fiddletuneoftheday/photos/
M: 4/4
L: 1/8
K: G
|:"G"B2BB A2B2 | cBA2 B4 | "D"ABAG F2FG | ABAG FED2 |\
| "G"B2BB A2B2 | cBA2 B4 | "D"ABAG FDEF | "G"G4 :|
|:"C"E4 G4 | c6 G2 | "D"ABAG F2FG | ABAG FED2 |\
| "C"E4 G4 | c6 Bc | "D"d2c2 B2A2 | "G"G4 :|
